X: 1
T: Jamaica
M: 2/4
R: Reel
L: 1/16
S: Hekerty, "Furze Cat"
Z: Transcribed by Richard Morgan
K: G
G2B2 B2cd | e2d2 e4 | d2B2 B2AG | A4 G2D2 |
G2B2 B2cd | e2d2 e4 | d2B2 B2AG | A4 G4 :|
g2g2 f2ed | e2e2 d2B2 | g2g2 fga2 | e4 d4 |
g2g2 f2ed | e2e2 d2B2 | Bcd2 d2cB | A4 G4 :|
